X:1
T:Title
%%score 1 { 2 | 3 }
L:1/8
Q:1/4=115
M:4/4
K:Ab
V:1 treble nm="Grand Piano, Staff 1"
V:2 bass nm="Choir Pad, Stoney, 10.10.1.4"
V:3 bass 
V:1
 [Cc]4 [EB]2 [EA]2 | [EG]6 [DF]2 | [DE]2 [CA]2 [EB]2 [DE]2 | [Ec]6 z2 | [=Ec]4 [Ec]2 [GB]2 | %5
w: By~Frank~E.~A.~Stoney,~1916 * *|||||
 [FA]6 [EG]2 | [EF]2 [EG]2 [FA]2 [=DB]2 | [EB]6 z2 | [Ee]4 [Ee]2 [Ed]2 | [Ec]6 [EA]2 | %10
w: |||||
 [EG]2 [DF]2 [DA]2 [DF]2 | E6 [FA]2 | [=Ec]4 [Gc]4 | [EA]8 |] %14
w: ||||
V:2
 E,4 A,2 A,2 | A,6 A,2 | G,2 A,2 G,2 B,2 | A,6 z2 | G,4 C2 C2 | C6 C2 | C2 C2 C2[K:bass] A,2 | %7
 G,6 z2 | A,4 G,2 G,2 | A,6 A,2 | A,2 A,2 A,2 B,2 | C6 C2 | C4 D4 | C8 |] %14
V:3
 A,,4 C,2 C,2 | D,6 D,2 | E,2 F,2 z2 G,2 | z8 | C,4 C,2 =E,2 | F,6 G,2 | A,2 G,2 F,2 B,,2 | %7
 E,6 z2 | C,4 B,,2 B,,2 | A,,6 C,2 | D,2 D,2 F,2 G,2 | A,6 F,2 | C,4 E,4 | [A,,A,]8 |] %14

